assets/Man elf/Light/Flat/man_elf_flat_light.svg

<svg width="32" height="32" viewBox="0 0 32 32" fill="none" xmlns="http://www.w3.org/2000/svg">
<path d="M10.15 10.8799H12.78L12.11 15.4799L12.1 15.4699C11.99 16.7599 10.88 17.7599 9.54001 17.7099C8.27001 17.6499 7.24001 16.6399 7.17001 15.3799C7.12001 14.5599 7.47001 13.8199 8.05001 13.3399H8.06001C8.06501 13.3399 8.06751 13.3374 8.07001 13.3349C8.07251 13.3324 8.07501 13.3299 8.08001 13.3299L8.46001 13.0199C9.05001 12.5399 9.55001 11.9499 9.93001 11.2799L10.15 10.8799Z" fill="#212121"/>
<path d="M22.7201 10.8799H20.1001L20.7601 15.4799L20.7701 15.4699C20.8801 16.7599 21.9901 17.7599 23.3301 17.7099C24.6001 17.6499 25.6301 16.6399 25.7001 15.3799C25.7501 14.5599 25.4001 13.8199 24.8201 13.3399H24.8101C24.8051 13.3399 24.8026 13.3374 24.8001 13.3349C24.7976 13.3324 24.7951 13.3299 24.7901 13.3299L24.4101 13.0199C23.8201 12.5399 23.3201 11.9499 22.9401 11.2799L22.7201 10.8799Z" fill="#212121"/>
<path d="M12.4501 10.1399C13.0201 10.7099 13.0201 11.6399 12.4501 12.2099C11.8801 12.7799 10.9501 12.7799 10.3801 12.1999C9.81012 11.6299 7.82012 8.70995 8.39012 8.13995C8.96012 7.56995 11.8801 9.56995 12.4501 10.1399Z" fill="#F4C6AD"/>
<path d="M20.4302 10.1399C19.8602 10.7099 19.8602 11.6399 20.4302 12.2099C21.0002 12.7799 21.9302 12.7799 22.5002 12.2099C23.0702 11.6399 25.0602 8.71989 24.4902 8.14989C23.9202 7.57989 21.0002 9.56989 20.4302 10.1399Z" fill="#F4C6AD"/>
<path d="M26.8503 29.9796L18.1638 24.6699L13.9802 16.2801C14.7764 16.0799 15.6006 15.97 16.4501 15.97C19.0701 15.97 21.5101 16.98 23.3401 18.68L23.3401 18.6699C24.6101 19.8499 25.5901 21.3599 26.1301 23.0899C26.6301 24.6899 26.8801 26.3699 26.8701 28.0499L26.8503 29.9796Z" fill="#00A6ED"/>
<path d="M16.55 29.9999L6 30V28.02C6 26.36 6.26 24.71 6.76 23.13L6.79 23.05C7.04659 22.2269 7.40793 21.4587 7.8502 20.7501L13.799 24.2758L16.55 29.9999Z" fill="#00A6ED"/>
<path d="M13.9801 16.28L26.8601 29.99V30L16.5501 30L7.8501 20.75C8.3201 19.99 8.8901 19.31 9.5301 18.71C10.7801 17.54 12.3001 16.7 13.9801 16.28Z" fill="#7D4533"/>
<path d="M16.4401 21.2599C20.0686 21.2599 23.0101 19.4467 23.0101 17.2099C23.0101 14.9732 20.0686 13.1599 16.4401 13.1599C12.8116 13.1599 9.87012 14.9732 9.87012 17.2099C9.87012 19.4467 12.8116 21.2599 16.4401 21.2599Z" fill="#A56953"/>
<path d="M16.8355 20.1925C16.6331 20.442 16.2513 20.4386 16.0533 20.1855L15.4506 19.4149C14.7245 18.4865 14.1392 17.4562 13.7134 16.3572L13.3 15.29H19.57L19.2916 16.0736C18.8351 17.3583 18.163 18.5558 17.3042 19.6146L16.8355 20.1925Z" fill="#F4C6AD"/>
<path d="M16.4399 25.17C15.3599 24.09 15.3599 22.34 16.4399 21.26C17.5199 22.34 17.5199 24.09 16.4399 25.17Z" fill="#FFF9BA"/>
<path d="M15.9999 3.42993C13.1799 3.42993 10.9499 5.81993 11.1499 8.62993L11.5499 14.2799C11.7199 16.0499 13.1199 17.3199 14.8199 17.3199H18.0799C19.7799 17.3199 21.1799 16.0599 21.3499 14.2799L21.7499 8.62993C21.9499 5.81993 19.7199 3.42993 16.8999 3.42993H15.9999V3.42993Z" fill="#FFD7C2"/>
<path d="M12.6499 10.54C12.7999 9.92997 13.3599 9.46997 14.0199 9.46997C14.7099 9.46997 15.2799 9.95997 15.4099 10.61C15.4399 10.75 15.3299 10.88 15.1799 10.88H12.9199C12.7399 10.88 12.5999 10.71 12.6499 10.54Z" fill="white"/>
<path d="M20.24 10.54C20.09 9.92997 19.5301 9.46997 18.87 9.46997C18.18 9.46997 17.61 9.95997 17.48 10.61C17.45 10.75 17.5601 10.88 17.7101 10.88H19.9701C20.1501 10.88 20.28 10.72 20.24 10.54Z" fill="white"/>
<path d="M13.3198 10.64C13.3198 10.14 13.7298 9.72998 14.2298 9.72998C14.7298 9.72998 15.1398 10.13 15.1298 10.64C15.1298 10.72 15.1198 10.8 15.0998 10.88H13.3498C13.3298 10.8 13.3198 10.72 13.3198 10.64Z" fill="#7D4533"/>
<path d="M19.5699 10.64C19.5699 10.14 19.1599 9.72998 18.6599 9.72998C18.1599 9.72998 17.7499 10.13 17.7599 10.64C17.7599 10.72 17.7699 10.8 17.7899 10.88H19.5399C19.5599 10.8 19.5699 10.72 19.5699 10.64Z" fill="#7D4533"/>
<path d="M14.23 10.1199C14.52 10.1199 14.75 10.3499 14.75 10.6399C14.75 10.7299 14.73 10.8099 14.69 10.8799H13.77C13.73 10.8099 13.71 10.7299 13.71 10.6399C13.71 10.3499 13.94 10.1199 14.23 10.1199Z" fill="black"/>
<path d="M18.6599 10.1199C18.3699 10.1199 18.1399 10.3499 18.1399 10.6399C18.1399 10.7299 18.1599 10.8099 18.1999 10.8799H19.1199C19.1599 10.8099 19.1799 10.7299 19.1799 10.6399C19.1799 10.3499 18.9499 10.1199 18.6599 10.1199Z" fill="black"/>
<path d="M14.08 10.2899C14.08 10.3782 14.0084 10.4499 13.92 10.4499C13.8316 10.4499 13.76 10.3782 13.76 10.2899C13.76 10.2015 13.8316 10.1299 13.92 10.1299C14.0084 10.1299 14.08 10.2015 14.08 10.2899Z" fill="white"/>
<path d="M18.54 10.2899C18.54 10.3782 18.4683 10.4499 18.38 10.4499C18.2916 10.4499 18.22 10.3782 18.22 10.2899C18.22 10.2015 18.2916 10.1299 18.38 10.1299C18.4683 10.1299 18.54 10.2015 18.54 10.2899Z" fill="white"/>
<path d="M19.58 8.96986C19.69 9.03986 19.8 9.07986 19.92 9.07986C20.09 9.07986 20.25 9.00986 20.35 8.86986C20.54 8.62986 20.49 8.27986 20.25 8.08986C20.22 8.05986 19.38 7.41986 18.16 7.56986C17.85 7.60986 17.63 7.88986 17.67 8.18986C17.71 8.49986 17.98 8.71986 18.29 8.67986C19.0169 8.58293 19.5184 8.92758 19.5759 8.96705C19.5777 8.9683 19.58 8.96986 19.58 8.96986Z" fill="#212121"/>
<path d="M12.5298 8.85983C12.6398 8.99983 12.7998 9.07983 12.9698 9.07983C13.0898 9.07983 13.1998 9.03983 13.2998 8.96983C13.3198 8.94983 13.8298 8.57983 14.5898 8.67983C14.8998 8.70983 15.1698 8.48983 15.2098 8.18983C15.2398 7.87983 15.0198 7.60983 14.7198 7.56983C13.5098 7.42983 12.6598 8.05983 12.6298 8.08983C12.3898 8.26983 12.3498 8.61983 12.5298 8.85983Z" fill="#212121"/>
<path d="M16.0599 10.4999L15.5399 12.1999C15.4299 12.5499 15.6899 12.8999 16.0599 12.8999H16.8399C17.1999 12.8999 17.4599 12.5499 17.3599 12.1999L16.8399 10.4999C16.7099 10.1299 16.1799 10.1299 16.0599 10.4999Z" fill="#E5AF93"/>
<path d="M16.4398 13.9699C15.8898 13.9699 15.3798 13.8399 14.9498 13.6099C14.7998 13.5299 14.6498 13.6999 14.7398 13.8399C15.0998 14.3999 15.7298 14.7699 16.4498 14.7699C17.1698 14.7699 17.7998 14.3999 18.1598 13.8399C18.2498 13.6999 18.0898 13.5299 17.9498 13.6099C17.4998 13.8399 16.9898 13.9699 16.4398 13.9699Z" fill="#990838"/>
<path d="M22.6301 8.06C23.1601 7.3 23.2301 6.27 22.7401 5.41C22.4301 4.87 21.9501 4.49 21.4001 4.31C20.8101 4.11 20.2901 3.72 19.9701 3.19C19.5301 2.48 18.7501 2 17.8601 2C17.5201 2 17.1901 2.07 16.8901 2.2C16.7401 2.26 16.5901 2.3 16.4401 2.32C16.2801 2.3 16.1301 2.26 15.9901 2.2C15.6901 2.07 15.3601 2 15.0201 2C14.1201 2 13.3401 2.48 12.9101 3.19C12.5801 3.72 12.0701 4.11 11.4701 4.31C10.9301 4.5 10.4401 4.87 10.1301 5.41C9.64007 6.27 9.72007 7.3 10.2401 8.06C10.3901 8.27 10.4801 8.52 10.5101 8.77C10.7501 8.91 10.9801 9.06 11.2001 9.21C11.2001 9.21 11.2001 9.21 11.2101 9.21L11.1601 8.25C11.1701 7.44 11.8201 6.78 12.6201 6.75H14.1001C15.1101 6.75 16.0201 6.16 16.4401 5.25C16.8601 6.16 17.7701 6.75 18.7801 6.75H20.2601C21.0701 6.79 21.7101 7.44 21.7201 8.25L21.6601 9.21C21.6601 9.21 21.6601 9.21 21.6701 9.21C21.8901 9.06 22.1201 8.91 22.3601 8.77C22.3901 8.51 22.4801 8.27 22.6301 8.06Z" fill="#212121"/>
<path d="M9.44922 5.71005C9.44922 5.44451 9.66448 5.22925 9.93002 5.22925H23.03C23.2956 5.22925 23.5108 5.44451 23.5108 5.71005C23.5108 5.97559 23.2956 6.19085 23.03 6.19085H9.93002C9.66448 6.19085 9.44922 5.97559 9.44922 5.71005Z" fill="#9B9B9B"/>
<path d="M16.4399 7.26C15.4699 6.29 15.4699 4.72 16.4399 3.75C17.4099 4.72 17.4099 6.29 16.4399 7.26Z" fill="#B4F6FC"/>
</svg>

<svg xmlns="http://www.w3.org/2000/svg" width="32" height="32" fill="none"><path fill="#212121" d="M10.15 10.88h2.63l-.67 4.6-.01-.01a2.462 2.462 0 0 1-2.56 2.24c-1.27-.06-2.3-1.07-2.37-2.33-.05-.82.3-1.56.88-2.04h.01c.005 0 .008-.003.01-.005.003-.003.005-.005.01-.005l.38-.31c.59-.48 1.09-1.07 1.47-1.74l.22-.4ZM22.72 10.88H20.1l.66 4.6.01-.01a2.462 2.462 0 0 0 2.56 2.24c1.27-.06 2.3-1.07 2.37-2.33.05-.82-.3-1.56-.88-2.04h-.01c-.005 0-.007-.003-.01-.005-.002-.003-.005-.005-.01-.005l-.38-.31a6.164 6.164 0 0 1-1.47-1.74l-.22-.4Z"/><path fill="#F4C6AD" d="M12.45 10.14c.57.57.57 1.5 0 2.07-.57.57-1.5.57-2.07-.01-.57-.57-2.56-3.49-1.99-4.06.57-.57 3.49 1.43 4.06 2ZM20.43 10.14c-.57.57-.57 1.5 0 2.07.57.57 1.5.57 2.07 0 .57-.57 2.56-3.49 1.99-4.06-.57-.57-3.49 1.42-4.06 1.99Z"/><path fill="#00A6ED" d="m26.85 29.98-8.686-5.31-4.184-8.39a10.1 10.1 0 0 1 2.47-.31c2.62 0 5.06 1.01 6.89 2.71v-.01c1.27 1.18 2.25 2.69 2.79 4.42.5 1.6.75 3.28.74 4.96l-.02 1.93ZM16.55 30H6v-1.98c0-1.66.26-3.31.76-4.89l.03-.08a9.912 9.912 0 0 1 1.06-2.3l5.949 3.526L16.55 30Z"/><path fill="#7D4533" d="m13.98 16.28 12.88 13.71V30H16.55l-8.7-9.25c.47-.76 1.04-1.44 1.68-2.04 1.25-1.17 2.77-2.01 4.45-2.43Z"/><path fill="#A56953" d="M16.44 21.26c3.629 0 6.57-1.813 6.57-4.05s-2.941-4.05-6.57-4.05c-3.628 0-6.57 1.813-6.57 4.05s2.942 4.05 6.57 4.05Z"/><path fill="#F4C6AD" d="M16.835 20.192a.5.5 0 0 1-.782-.006l-.602-.771a12 12 0 0 1-1.738-3.058L13.3 15.29h6.27l-.278.784a11.999 11.999 0 0 1-1.988 3.54l-.468.578Z"/><path fill="#FFF9BA" d="M16.44 25.17a2.764 2.764 0 0 1 0-3.91 2.764 2.764 0 0 1 0 3.91Z"/><path fill="#FFD7C2" d="M16 3.43a4.86 4.86 0 0 0-4.85 5.2l.4 5.65c.17 1.77 1.57 3.04 3.27 3.04h3.26c1.7 0 3.1-1.26 3.27-3.04l.4-5.65a4.86 4.86 0 0 0-4.85-5.2H16Z"/><path fill="#fff" d="M12.65 10.54c.15-.61.71-1.07 1.37-1.07.69 0 1.26.49 1.39 1.14.03.14-.08.27-.23.27h-2.26c-.18 0-.32-.17-.27-.34ZM20.24 10.54a1.416 1.416 0 0 0-2.76.07c-.03.14.08.27.23.27h2.26c.18 0 .31-.16.27-.34Z"/><path fill="#7D4533" d="M13.32 10.64c0-.5.41-.91.91-.91s.91.4.9.91c0 .08-.01.16-.03.24h-1.75a.986.986 0 0 1-.03-.24ZM19.57 10.64c0-.5-.41-.91-.91-.91s-.91.4-.9.91c0 .08.01.16.03.24h1.75c.02-.08.03-.16.03-.24Z"/><path fill="#000" d="M14.23 10.12a.516.516 0 0 1 .46.76h-.92a.516.516 0 0 1 .46-.76ZM18.66 10.12a.516.516 0 0 0-.46.76h.92a.516.516 0 0 0-.46-.76Z"/><path fill="#fff" d="M14.08 10.29a.16.16 0 1 1-.32 0 .16.16 0 0 1 .32 0ZM18.54 10.29a.16.16 0 1 1-.32 0 .16.16 0 0 1 .32 0Z"/><path fill="#212121" d="M19.58 8.97c.11.07.22.11.34.11.17 0 .33-.07.43-.21.19-.24.14-.59-.1-.78-.03-.03-.87-.67-2.09-.52a.56.56 0 0 0 .13 1.11c.727-.097 1.228.248 1.286.287l.004.003ZM12.53 8.86c.11.14.27.22.44.22.12 0 .23-.04.33-.11.02-.02.53-.39 1.29-.29.31.03.58-.19.62-.49a.568.568 0 0 0-.49-.62c-1.21-.14-2.06.49-2.09.52-.24.18-.28.53-.1.77Z"/><path fill="#E5AF93" d="m16.06 10.5-.52 1.7c-.11.35.15.7.52.7h.78c.36 0 .62-.35.52-.7l-.52-1.7c-.13-.37-.66-.37-.78 0Z"/><path fill="#990838" d="M16.44 13.97c-.55 0-1.06-.13-1.49-.36-.15-.08-.3.09-.21.23.36.56.99.93 1.71.93s1.35-.37 1.71-.93c.09-.14-.07-.31-.21-.23-.45.23-.96.36-1.51.36Z"/><path fill="#212121" d="M22.63 8.06c.53-.76.6-1.79.11-2.65-.31-.54-.79-.92-1.34-1.1a2.66 2.66 0 0 1-1.43-1.12A2.487 2.487 0 0 0 17.86 2c-.34 0-.67.07-.97.2-.15.06-.3.1-.45.12-.16-.02-.31-.06-.45-.12a2.462 2.462 0 0 0-3.08.99c-.33.53-.84.92-1.44 1.12-.54.19-1.03.56-1.34 1.1-.49.86-.41 1.89.11 2.65.15.21.24.46.27.71.24.14.47.29.69.44h.01l-.05-.96c.01-.81.66-1.47 1.46-1.5h1.48c1.01 0 1.92-.59 2.34-1.5.42.91 1.33 1.5 2.34 1.5h1.48c.81.04 1.45.69 1.46 1.5l-.06.96h.01c.22-.15.45-.3.69-.44.03-.26.12-.5.27-.71Z"/><path fill="#9B9B9B" d="M9.45 5.71a.48.48 0 0 1 .48-.48h13.1a.48.48 0 1 1 0 .96H9.93a.48.48 0 0 1-.48-.48Z"/><path fill="#B4F6FC" d="M16.44 7.26a2.48 2.48 0 0 1 0-3.51c.97.97.97 2.54 0 3.51Z"/></svg>
